azure-docs/api_know_academic.svg

<?xml version="1.0" encoding="UTF-8"?>
<svg width="512px" height="512px" viewBox="0 0 512 512" version="1.1" xmlns="http://www.w3.org/2000/svg" xmlns:xlink="http://www.w3.org/1999/xlink">
    <!-- Generator: Sketch 46.2 (44496) - http://www.bohemiancoding.com/sketch -->
    <title>academicKnowledge-wht-bluBG-512p</title>
    <desc>Created with Sketch.</desc>
    <defs></defs>
    <g id="PRODUCTION-ICONS" stroke="none" stroke-width="1" fill="none" fill-rule="evenodd">
        <g id="academicKnowledge-wht-bluBG-512p">
            <g id="Academic-Knowledge-API">
                <rect id="Rectangle-3-Copy-26" fill="#0063B1" x="0" y="0" width="512" height="512"></rect>
                <path d="M251.006293,114.180992 L81.0450489,226.547925 L156.468338,276.416725 L134.355627,327.110414 L249.79456,403.426859 L364.744249,327.44037 L346.090382,276.064014 L398.285938,241.555214 L398.285938,323.253348 L420.978916,323.253348 L420.978916,226.547925 L251.006293,114.180992 Z M122.30656,226.547925 L251.011982,141.459214 L379.723093,226.547925 L251.011982,311.648014 L122.30656,226.547925 Z M326.566116,288.972103 L337.232782,318.349525 L249.79456,376.148637 L162.85696,318.679481 L175.730916,289.159837 L251.006293,338.926237 L326.566116,288.972103 Z" id="Page-1" fill="#FFFFFF"></path>
            </g>
        </g>
    </g>
</svg>

<svg width="512" height="512" xmlns="http://www.w3.org/2000/svg"><g fill="none" fill-rule="evenodd"><path fill="#0063B1" d="M0 0h512v512H0z"/><path d="M251.006 114.181L81.045 226.548l75.423 49.869-22.112 50.693 115.439 76.317 114.95-75.987-18.655-51.376 52.196-34.509v81.698h22.693v-96.705L251.006 114.18zm-128.7 112.367l128.706-85.089 128.711 85.089-128.711 85.1-128.705-85.1zm204.26 62.424l10.667 29.378-87.438 57.799-86.938-57.47 12.874-29.52 75.275 49.767 75.56-49.954z" fill="#FFF"/></g></svg>
